public/library/npm.svg

<svg xmlns="http://www.w3.org/2000/svg" viewBox="0 0 128 128"><path fill="#cb3837" d="M2 38.5h124v43.71H64v7.29H36.44v-7.29H2Zm6.89 36.43h13.78V53.07h6.89v21.86h6.89V45.79H8.89Zm34.44-29.14v36.42h13.78v-7.28h13.78V45.79Zm13.78 7.29H64v14.56h-6.89Zm20.67-7.29v29.14h13.78V53.07h6.89v21.86h6.89V53.07h6.89v21.86h6.89V45.79Z"/></svg>

<svg id="NPM" xmlns="http://www.w3.org/2000/svg" viewBox="0 0 128 128"><path id="original-wordmark" fill="#cb3837" d="M2,38.5H126V82.21H64V89.5H36.44V82.21H2ZM8.89,74.93H22.67V53.07h6.89V74.93h6.89V45.79H8.89ZM43.33,45.79V82.21H57.11V74.93H70.89V45.79Zm13.78,7.29H64V67.64H57.11Zm20.67-7.29V74.93H91.56V53.07h6.89V74.93h6.89V53.07h6.89V74.93h6.89V45.79Z"/></svg>
